svgs/sharp-solid/dial-med-low.svg

<svg xmlns="http://www.w3.org/2000/svg" viewBox="0 0 576 512"><!--! Font Awesome Pro 6.6.0 by @fontawesome - https://fontawesome.com License - https://fontawesome.com/license (Commercial License) Copyright 2024 Fonticons, Inc. --><path d="M320 0l0 64-64 0 0-64 64 0zM128 64l0 64-64 0 0-64 64 0zm384 0l0 64-64 0 0-64 64 0zm0 192l64 0 0 64-64 0 0-64zm0 192l0 64-64 0 0-64 64 0zM64 448l64 0 0 64-64 0 0-64zM0 256l64 0 0 64L0 320l0-64zM174.6 400.5c-56.7-56.7-62-145.4-15.7-208L270.8 304.3l17 17 33.9-33.9-17-17L192.8 158.5c62.6-46.2 151.3-41 208 15.7c62.5 62.5 62.5 163.8 0 226.3s-163.8 62.5-226.3 0z"/></svg>

<svg xmlns="http://www.w3.org/2000/svg" viewBox="0 0 576 512"><!--! Font Awesome Pro 6.5.2 by @fontawesome - https://fontawesome.com License - https://fontawesome.com/license (Commercial License) Copyright 2024 Fonticons, Inc. --><path d="M320 0V64H256V0h64zM128 64v64H64V64h64zm384 0v64H448V64h64zm0 192h64v64H512V256zm0 192v64H448V448h64zM64 448h64v64H64V448zM0 256H64v64H0V256zM174.6 400.5c-56.7-56.7-62-145.4-15.7-208L270.8 304.3l17 17 33.9-33.9-17-17L192.8 158.5c62.6-46.2 151.3-41 208 15.7c62.5 62.5 62.5 163.8 0 226.3s-163.8 62.5-226.3 0z"/></svg>
